;FLAVOR:Marlin
;TIME:11244
;Filament used: 6.64605m
;Layer height: 0.2
;MINX:61.549
;MINY:49.917
;MINZ:0.2
;MAXX:168.023
;MAXY:165.327
;MAXZ:22.2
;Generated with Cura_SteamEngine 4.4.1
M140 S60
M105
M190 S60
M104 S200
M105
M109 S200
M82 ;absolute extrusion mode
M201 X500.00 Y500.00 Z100.00 E5000.00 ;Setup machine max acceleration
M203 X500.00 Y500.00 Z10.00 E50.00 ;Setup machine max feedrate
M204 P500.00 R1000.00 T500.00 ;Setup Print/Retract/Travel acceleration
M205 X8.00 Y8.00 Z0.40 E5.00 ;Setup Jerk
M220 S100 ;Reset Feedrate
M221 S100 ;Reset Flowrate

G28 ;Home

G92 E0 ;Reset Extruder
G1 Z2.0 F3000 ;Move Z Axis up
G1 X10.1 Y20 Z0.28 F5000.0 ;Move to start position
G1 X10.1 Y200.0 Z0.28 F1500.0 E15 ;Draw the first line
G1 X10.4 Y200.0 Z0.28 F5000.0 ;Move to side a little
G1 X10.4 Y20 Z0.28 F1500.0 E30 ;Draw the second line
G92 E0 ;Reset Extruder
G1 Z2.0 F3000 ;Move Z Axis up

G92 E0
G92 E0
G1 F1500 E-6.5
;LAYER_COUNT:111
;LAYER:0
M107
G0 F6000 X72.352 Y54.139 Z0.2
;TYPE:SKIRT
G1 F1500 E0
G1 F1200 X72.962 Y53.427 E0.03118
G1 X73.631 Y52.77 E0.06237
G1 X74.354 Y52.172 E0.09358
G1 X75.125 Y51.638 E0.12477
G1 X75.939 Y51.172 E0.15597
G1 X76.789 Y50.776 E0.18716
G1 X77.67 Y50.455 E0.21834
G1 X78.575 Y50.209 E0.24954
G1 X79.498 Y50.042 E0.28073
G1 X80.271 Y49.963 E0.30658
G1 X80.603 Y49.941 E0.31764
G1 X81.33 Y49.917 E0.34184
G1 X118.293 Y49.917 E1.57123
G1 X118.451 Y49.918 E1.57649
G1 X119.149 Y49.928 E1.5997
G1 X120.085 Y49.982 E1.63089
G1 X121.013 Y50.114 E1.66206
G1 X121.927 Y50.326 E1.69327
G1 X122.819 Y50.615 E1.72446
G1 X123.684 Y50.978 E1.75566
G1 X124.514 Y51.414 E1.78684
G1 X125.305 Y51.919 E1.81805
G1 X126.049 Y52.49 E1.84925
G1 X126.742 Y53.122 E1.88044
G1 X127.379 Y53.81 E1.91163
G1 X127.954 Y54.551 E1.94282
G1 X128.236 Y54.967 E1.95954
G1 X128.491 Y55.362 E1.97518
G1 X129.969 Y57.613 E2.06474
G1 X131.394 Y59.656 E2.14759
G1 X132.889 Y61.675 E2.23115
G1 X134.452 Y63.666 E2.31533
G1 X134.742 Y64.015 E2.33043
G1 X134.832 Y64.125 E2.33515
G1 X135.539 Y64.998 E2.37252
G1 X136.098 Y65.751 E2.40371
G1 X136.59 Y66.55 E2.43492
G1 X137.013 Y67.387 E2.46611
G1 X137.363 Y68.258 E2.49733
G1 X137.656 Y69.086 E2.52654
G1 X138.557 Y71.521 E2.6129
G1 X139.492 Y73.848 E2.69631
G1 X140.499 Y76.159 E2.78015
G1 X141.573 Y78.445 E2.86416
G1 X142.711 Y80.7 E2.94817
G1 X143.896 Y82.894 E3.03111
G1 X145.169 Y85.096 E3.1157
G1 X146.476 Y87.215 E3.19851
G1 X147.861 Y89.327 E3.28251
G1 X149.302 Y91.393 E3.36629
G1 X150.811 Y93.431 E3.45063
G1 X152.347 Y95.39 E3.53343
G1 X153.962 Y97.332 E3.61744
G1 X155.642 Y99.238 E3.70194
G1 X157.336 Y101.057 E3.78462
G1 X159.1 Y102.845 E3.86815
G1 X160.918 Y104.587 E3.9519
G1 X162.813 Y106.303 E4.03693
G1 X163.498 Y106.888 E4.06689
G1 X163.6 Y106.976 E4.07137
G1 X164.255 Y107.55 E4.10034
G1 X164.933 Y108.198 E4.13153
G1 X165.554 Y108.901 E4.16273
G1 X166.112 Y109.654 E4.1939
G1 X166.605 Y110.452 E4.2251
G1 X167.027 Y111.29 E4.25631
G1 X167.377 Y112.16 E4.2875
G1 X167.652 Y113.057 E4.3187
G1 X167.848 Y113.974 E4.34989
G1 X167.989 Y115.231 E4.39196
G1 X168.007 Y115.565 E4.40308
G1 X168.023 Y116.157 E4.42278
G1 X168.023 Y153.591 E5.66784
G1 X168.022 Y153.727 E5.67236
G1 X168.013 Y154.454 E5.69655
G1 X167.962 Y155.391 E5.72776
G1 X167.83 Y156.319 E5.75893
G1 X167.621 Y157.233 E5.79012
G1 X167.334 Y158.126 E5.82132
G1 X166.972 Y158.992 E5.85253
G1 X166.538 Y159.823 E5.88372
G1 X166.034 Y160.614 E5.91491
G1 X165.465 Y161.359 E5.94609
G1 X164.834 Y162.054 E5.97731
G1 X164.147 Y162.692 E6.0085
G1 X163.408 Y163.269 E6.03968
G1 X162.622 Y163.781 E6.07088
G1 X161.796 Y164.224 E6.10205
G1 X160.934 Y164.596 E6.13328
G1 X160.045 Y164.892 E6.16444
G1 X159.133 Y165.112 E6.19565
G1 X158.206 Y165.253 E6.22683
G1 X157.322 Y165.314 E6.25631
G1 X157.001 Y165.323 E6.26699
G1 X156.693 Y165.327 E6.27723
G1 X144.73 Y165.327 E6.67512
G1 X144.574 Y165.326 E6.68031
G1 X143.869 Y165.316 E6.70376
G1 X143.555 Y165.307 E6.71421
G1 X142.457 Y165.26 E6.75076
G1 X142.322 Y165.253 E6.75526
G1 X141.693 Y165.218 E6.77621
G1 X139.147 Y165.148 E6.86092
G1 X136.629 Y165.15 E6.94467
G1 X134.11 Y165.224 E7.02849
G1 X132.556 Y165.303 E7.08025
G1 X132.326 Y165.312 E7.0879
G1 X131.993 Y165.322 E7.09898
G1 X131.663 Y165.327 E7.10996
G1 X119.73 Y165.327 E7.50685
G1 X119.572 Y165.326 E7.51211
G1 X118.874 Y165.316 E7.53532
G1 X117.938 Y165.262 E7.56651
G1 X117.01 Y165.13 E7.59768
G1 X116.096 Y164.918 E7.62889
G1 X115.204 Y164.629 E7.66008
G1 X114.339 Y164.266 E7.69128
G1 X113.509 Y163.83 E7.72246
G1 X113.047 Y163.547 E7.74048
G1 X112.518 Y163.204 E7.76145
G1 X110.313 Y161.804 E7.84832
G1 X108.147 Y160.514 E7.93217
G1 X105.924 Y159.272 E8.01687
G1 X103.748 Y158.137 E8.0985
G1 X101.448 Y157.018 E8.18357
G1 X99.151 Y155.98 E8.2674
G1 X96.845 Y155.016 E8.35053
G1 X94.468 Y154.099 E8.43527
G1 X92.123 Y153.272 E8.51798
G1 X89.721 Y152.5 E8.60189
G1 X87.306 Y151.797 E8.68555
G1 X84.875 Y151.165 E8.76909
G1 X82.421 Y150.599 E8.85285
G1 X79.91 Y150.094 E8.93804
G1 X77.478 Y149.679 E9.0201
G1 X74.983 Y149.323 E9.10393
G1 X72.334 Y149.022 E9.1926
G1 X71.474 Y148.937 E9.22134
G1 X70.546 Y148.805 E9.25252
G1 X69.632 Y148.594 E9.28372
G1 X68.739 Y148.307 E9.31491
G1 X67.875 Y147.944 E9.34608
G1 X67.044 Y147.509 E9.37728
G1 X66.253 Y147.004 E9.40849
G1 X65.508 Y146.434 E9.43969
G1 X64.815 Y145.803 E9.47087
G1 X64.177 Y145.115 E9.50207
G1 X63.601 Y144.375 E9.53326
G1 X63.09 Y143.589 E9.56445
G1 X62.647 Y142.762 E9.59565
G1 X62.277 Y141.9 E9.62685
G1 X61.981 Y141.01 E9.65804
G1 X61.763 Y140.098 E9.68923
G1 X61.622 Y139.171 E9.72042
G1 X61.564 Y138.321 E9.74876
G1 X61.554 Y137.988 E9.75984
G1 X61.549 Y137.658 E9.77081
G1 X61.549 Y106.707 E10.80025
G1 X61.55 Y106.549 E10.8055
G1 X61.56 Y105.851 E10.82872
G1 X61.641 Y104.665 E10.86826
G1 X61.689 Y104.275 E10.88133
G1 X61.978 Y101.743 E10.96609
G1 X62.194 Y99.189 E11.05134
G1 X62.334 Y96.728 E11.13333
G1 X62.406 Y94.17 E11.21844
G1 X62.406 Y91.681 E11.30122
G1 X62.334 Y89.122 E11.38637
G1 X62.193 Y86.643 E11.46896
G1 X62.044 Y84.786 E11.53092
G1 X62.013 Y84.217 E11.54987
G1 X62.004 Y83.9 E11.56042
G1 X62 Y83.588 E11.5708
G1 X62 Y72.624 E11.93546
G1 X62.001 Y72.466 E11.94072
G1 X62.011 Y71.768 E11.96393
G1 X62.065 Y70.832 E11.99512
G1 X62.197 Y69.904 E12.02629
G1 X62.409 Y68.99 E12.0575
G1 X62.698 Y68.098 E12.08869
G1 X63.061 Y67.233 E12.11989
G1 X63.497 Y66.403 E12.15107
G1 X64.002 Y65.612 E12.18228
G1 X64.476 Y64.985 E12.20843
G1 X64.707 Y64.701 E12.2206
G1 X66.368 Y62.643 E12.30856
G1 X67.877 Y60.659 E12.39147
G1 X69.363 Y58.587 E12.47628
G1 X70.755 Y56.526 E12.559
G1 X71.269 Y55.717 E12.59087
G1 X71.36 Y55.576 E12.59646
G1 X71.804 Y54.9 E12.62336
G1 X72.352 Y54.139 E12.65455
G0 F6000 X72.677 Y54.373
G1 F1200 X73.278 Y53.676 E12.68516
G1 X73.937 Y53.033 E12.71578
G1 X74.65 Y52.45 E12.74641
G1 X75.41 Y51.931 E12.77702
G1 X76.213 Y51.481 E12.80764
G1 X77.052 Y51.101 E12.83827
G1 X77.92 Y50.796 E12.86887
G1 X78.812 Y50.567 E12.8995
G1 X79.72 Y50.416 E12.93012
G1 X80.297 Y50.362 E12.94939
G1 X80.629 Y50.34 E12.96046
G1 X81.33 Y50.317 E12.98379
G1 X118.293 Y50.317 E14.21318
G1 X118.445 Y50.318 E14.21824
G1 X119.143 Y50.328 E14.24146
G1 X120.062 Y50.381 E14.27207
G1 X120.973 Y50.514 E14.30269
G1 X121.869 Y50.725 E14.33331
G1 X122.743 Y51.013 E14.36392
G1 X123.59 Y51.376 E14.39457
G1 X124.401 Y51.811 E14.42517
G1 X125.171 Y52.315 E14.45578
G1 X125.895 Y52.884 E14.48641
G1 X126.567 Y53.514 E14.51705
G1 X127.182 Y54.199 E14.54767
G1 X127.9 Y55.183 E14.58818
G1 X128.189 Y55.631 E14.60591
G1 X129.633 Y57.832 E14.69347
G1 X131.06 Y59.877 E14.77641
G1 X132.585 Y61.937 E14.86165
G1 X134.145 Y63.923 E14.94565
G1 X134.434 Y64.271 E14.96069
G1 X134.521 Y64.377 E14.96526
G1 X135.228 Y65.25 E15.00262
G1 X135.776 Y65.99 E15.03325
G1 X136.258 Y66.775 E15.06388
G1 X136.669 Y67.598 E15.09448
G1 X136.986 Y68.391 E15.12289
G1 X137.275 Y69.211 E15.1518
G1 X138.187 Y71.673 E15.23913
G1 X139.131 Y74.021 E15.3233
G1 X140.128 Y76.31 E15.40634
G1 X141.212 Y78.616 E15.49109
G1 X142.362 Y80.896 E15.57602
G1 X143.541 Y83.078 E15.65851
G1 X144.826 Y85.3 E15.74388
G1 X146.15 Y87.448 E15.82781
G1 X147.526 Y89.545 E15.91123
G1 X148.985 Y91.638 E15.99609
G1 X150.49 Y93.671 E16.08022
G1 X152.04 Y95.647 E16.16375
G1 X153.653 Y97.587 E16.24766
G1 X155.316 Y99.473 E16.33129
G1 X157.076 Y101.363 E16.41719
G1 X158.821 Y103.132 E16.49983
G1 X160.655 Y104.89 E16.58433
G1 X162.53 Y106.587 E16.66844
G1 X163.238 Y107.192 E16.69942
G1 X163.336 Y107.277 E16.70373
G1 X163.991 Y107.851 E16.7327
G1 X164.657 Y108.487 E16.76333
G1 X165.264 Y109.179 E16.79394
G1 X165.81 Y109.921 E16.82459
G1 X166.289 Y110.707 E16.8552
G1 X166.698 Y111.532 E16.88583
G1 X167.033 Y112.389 E16.91643
G1 X167.293 Y113.272 E16.94705
G1 X167.476 Y114.174 E16.97766
G1 X167.59 Y115.253 E17.01375
G1 X167.608 Y115.587 E17.02487
G1 X167.623 Y116.157 E17.04383
G1 X167.623 Y153.591 E18.28889
G1 X167.622 Y153.722 E18.29325
G1 X167.613 Y154.449 E18.31743
G1 X167.562 Y155.368 E18.34805
G1 X167.431 Y156.28 E18.37869
G1 X167.221 Y157.176 E18.4093
G1 X166.935 Y158.051 E18.43992
G1 X166.574 Y158.898 E18.47054
G1 X166.14 Y159.71 E18.50116
G1 X165.638 Y160.482 E18.53179
G1 X165.07 Y161.207 E18.56242
G1 X164.442 Y161.88 E18.59304
G1 X163.758 Y162.496 E18.62366
G1 X163.023 Y163.05 E18.65427
G1 X162.243 Y163.539 E18.68489
G1 X161.423 Y163.958 E18.71552
G1 X160.57 Y164.304 E18.74613
G1 X159.69 Y164.575 E18.77676
G1 X158.79 Y164.768 E18.80737
G1 X157.876 Y164.883 E18.83801
G1 X157.311 Y164.914 E18.85683
G1 X156.99 Y164.923 E18.86751
G1 X156.693 Y164.927 E18.87739
G1 X144.73 Y164.927 E19.27528
G1 X144.58 Y164.926 E19.28027
G1 X143.875 Y164.916 E19.30372
G1 X143.572 Y164.907 E19.31381
G1 X142.474 Y164.86 E19.35036
G1 X142.344 Y164.854 E19.35469
G1 X141.69 Y164.818 E19.37647
G1 X139.158 Y164.748 E19.46072
G1 X136.617 Y164.75 E19.54523
G1 X134.077 Y164.824 E19.62975
G1 X132.535 Y164.903 E19.6811
G1 X132.314 Y164.912 E19.68846
G1 X131.981 Y164.922 E19.69954
G1 X131.663 Y164.927 E19.71012
G1 X119.73 Y164.927 E20.10701
G1 X119.578 Y164.926 E20.11207
G1 X118.88 Y164.916 E20.13529
G1 X117.961 Y164.863 E20.1659
G1 X117.05 Y164.73 E20.19652
G1 X116.154 Y164.519 E20.22714
G1 X115.28 Y164.231 E20.25775
G1 X114.433 Y163.868 E20.2884
G1 X113.265 Y163.211 E20.33297
G1 X112.729 Y162.863 E20.35422
G1 X110.527 Y161.465 E20.44098
G1 X108.341 Y160.163 E20.5256
G1 X106.152 Y158.94 E20.609
G1 X103.901 Y157.766 E20.69344
G1 X101.609 Y156.651 E20.77821
G1 X99.321 Y155.617 E20.86172
G1 X97.008 Y154.65 E20.94511
G1 X94.603 Y153.722 E21.03085
G1 X92.241 Y152.89 E21.11414
G1 X89.849 Y152.121 E21.19771
G1 X87.412 Y151.412 E21.28212
G1 X84.951 Y150.772 E21.3667
G1 X82.484 Y150.203 E21.4509
G1 X80.023 Y149.708 E21.5344
G1 X77.524 Y149.281 E21.61872
G1 X75.018 Y148.924 E21.70291
G1 X72.414 Y148.628 E21.79008
G1 X71.514 Y148.539 E21.82016
G1 X70.603 Y148.409 E21.85076
G1 X69.706 Y148.2 E21.8814
G1 X68.831 Y147.914 E21.91202
G1 X67.984 Y147.553 E21.94264
G1 X67.171 Y147.12 E21.97328
G1 X66.4 Y146.618 E22.00388
G1 X65.674 Y146.051 E22.03451
G1 X65.001 Y145.423 E22.06513
G1 X64.385 Y144.739 E22.09575
G1 X63.83 Y144.004 E22.12638
G1 X63.341 Y143.224 E22.157
G1 X62.922 Y142.405 E22.1876
G1 X62.575 Y141.552 E22.21822
G1 X62.304 Y140.672 E22.24885
G1 X62.11 Y139.772 E22.27947
G1 X61.995 Y138.859 E22.31008
G1 X61.964 Y138.309 E22.3284
G1 X61.954 Y137.976 E22.33948
G1 X61.949 Y137.658 E22.35006
G1 X61.949 Y106.707 E23.37949
G1 X61.95 Y106.555 E23.38455
G1 X61.96 Y105.857 E23.40777
G1 X62.038 Y104.714 E23.44587
G1 X62.086 Y104.324 E23.45894
G1 X62.378 Y101.755 E23.54494
G1 X62.591 Y99.247 E23.62865
G1 X62.734 Y96.726 E23.71264
G1 X62.806 Y94.181 E23.79732
G1 X62.806 Y91.67 E23.88083
G1 X62.734 Y89.124 E23.96555
G1 X62.59 Y86.587 E24.05006
G1 X62.443 Y84.754 E24.11123
G1 X62.413 Y84.206 E24.12948
G1 X62.404 Y83.889 E24.14003
G1 X62.4 Y83.588 E24.15004
G1 X62.4 Y72.624 E24.5147
G1 X62.401 Y72.472 E24.51976
G1 X62.411 Y71.774 E24.54298
G1 X62.464 Y70.855 E24.57359
G1 X62.597 Y69.944 E24.60422
G1 X62.808 Y69.048 E24.63483
G1 X63.096 Y68.174 E24.66544
G1 X63.459 Y67.327 E24.69609
G1 X63.894 Y66.516 E24.7267
G1 X64.398 Y65.746 E24.75731
G1 X64.787 Y65.237 E24.77861
G1 X65.018 Y64.953 E24.79079
G1 X66.669 Y62.908 E24.87821
G1 X68.2 Y60.895 E24.96232
G1 X69.675 Y58.839 E25.04648
G1 X71.091 Y56.743 E25.13061
G1 X71.606 Y55.932 E25.16257
G1 X71.694 Y55.796 E25.16796
G1 X72.138 Y55.12 E25.19485
G1 X72.677 Y54.373 E25.22549
G0 F6000 X73.001 Y54.607
G1 F1200 X73.593 Y53.925 E25.25553
G1 X74.242 Y53.297 E25.28557
G1 X74.944 Y52.73 E25.31558
G1 X75.694 Y52.226 E25.34563
G1 X76.486 Y51.791 E25.37569
G1 X77.313 Y51.428 E25.40573
G1 X78.168 Y51.139 E25.43575
G1 X79.046 Y50.927 E25.46579
G1 X80.324 Y50.761 E25.50865
G1 X80.656 Y50.739 E25.51972
G1 X81.33 Y50.717 E25.54215
G1 X118.293 Y50.717 E26.77154
G1 X118.439 Y50.718 E26.7764
G1 X119.137 Y50.728 E26.79962
G1 X120.039 Y50.781 E26.82967
G1 X120.932 Y50.913 E26.85969
G1 X121.81 Y51.124 E26.88973
G1 X122.666 Y51.412 E26.91976
G1 X123.493 Y51.774 E26.94979
G1 X124.285 Y52.209 E26.97984
G1 X125.036 Y52.711 E27.00989
G1 X125.739 Y53.278 E27.03993
G1 X126.389 Y53.905 E27.06997
G1 X126.981 Y54.587 E27.1
G1 X127.564 Y55.4 E27.13328
G1 X127.851 Y55.846 E27.15092
G1 X129.304 Y58.059 E27.23897
G1 X130.743 Y60.122 E27.32263
G1 X132.248 Y62.154 E27.40673
G1 X133.825 Y64.163 E27.49168
G1 X134.127 Y64.526 E27.50738
G1 X134.211 Y64.629 E27.5118
G1 X134.918 Y65.502 E27.54917
G1 X135.454 Y66.228 E27.57918
G1 X135.925 Y66.999 E27.60923
G1 X136.325 Y67.808 E27.63925
G1 X136.609 Y68.525 E27.6649
G1 X136.895 Y69.336 E27.6935
G1 X137.812 Y71.812 E27.78132
G1 X138.757 Y74.164 E27.86563
G1 X139.771 Y76.491 E27.95005
G1 X140.851 Y78.787 E28.03444
G1 X142.011 Y81.087 E28.12012
G1 X143.2 Y83.289 E28.20335
G1 X144.481 Y85.504 E28.28846
G1 X145.792 Y87.63 E28.37153
G1 X147.207 Y89.787 E28.45733
G1 X148.652 Y91.859 E28.54135
G1 X150.17 Y93.91 E28.62622
G1 X151.72 Y95.886 E28.70975
G1 X153.361 Y97.86 E28.79513
G1 X155.041 Y99.765 E28.87961
G1 X156.765 Y101.616 E28.96374
G1 X158.543 Y103.419 E29.04796
G1 X160.393 Y105.192 E29.13319
G1 X162.266 Y106.887 E29.21721
G1 X162.978 Y107.496 E29.24837
G1 X163.073 Y107.578 E29.25254
G1 X163.728 Y108.152 E29.28151
G1 X164.38 Y108.776 E29.31153
G1 X164.974 Y109.456 E29.34156
G1 X165.506 Y110.186 E29.3716
G1 X165.971 Y110.96 E29.40163
G1 X166.366 Y111.772 E29.43167
G1 X166.688 Y112.616 E29.46171
G1 X166.934 Y113.485 E29.49175
G1 X167.101 Y114.373 E29.5218
G1 X167.19 Y115.274 E29.55192
G1 X167.208 Y115.608 E29.56304
G1 X167.223 Y116.157 E29.58131
G1 X167.223 Y153.591 E30.82637
G1 X167.222 Y153.717 E30.83056
G1 X167.213 Y154.444 E30.85474
G1 X167.162 Y155.346 E30.88479
G1 X167.031 Y156.24 E30.91484
G1 X166.822 Y157.118 E30.94486
G1 X166.536 Y157.975 E30.97491
G1 X166.175 Y158.803 E31.00495
G1 X165.743 Y159.595 E31.03496
G1 X165.242 Y160.347 E31.06501
G1 X164.676 Y161.051 E31.09506
G1 X164.051 Y161.702 E31.12507
G1 X163.37 Y162.296 E31.15513
G1 X162.639 Y162.827 E31.18518
G1 X161.865 Y163.291 E31.21519
G1 X161.052 Y163.685 E31.24524
G1 X160.208 Y164.005 E31.27526
G1 X159.338 Y164.25 E31.30532
G1 X158.451 Y164.416 E31.33534
G1 X157.3 Y164.514 E31.37376
G1 X156.979 Y164.523 E31.38444
G1 X156.693 Y164.527 E31.39395
G1 X144.73 Y164.527 E31.79184
G1 X144.585 Y164.526 E31.79667
G1 X143.88 Y164.516 E31.82012
G1 X143.589 Y164.508 E31.8298
G1 X142.491 Y164.461 E31.86635
G1 X142.366 Y164.455 E31.87052
G1 X141.686 Y164.418 E31.89317
G1 X139.169 Y164.348 E31.97691
G1 X136.64 Y164.35 E32.06103
G1 X134.046 Y164.426 E32.14734
G1 X132.515 Y164.504 E32.19833
G1 X132.302 Y164.512 E32.20542
G1 X131.969 Y164.522 E32.2165
G1 X131.663 Y164.527 E32.22668
G1 X119.73 Y164.527 E32.62357
G1 X119.584 Y164.526 E32.62843
G1 X118.886 Y164.516 E32.65165
G1 X117.984 Y164.463 E32.6817
G1 X117.091 Y164.331 E32.71172
G1 X116.213 Y164.12 E32.74176
G1 X115.357 Y163.832 E32.7718
G1 X114.53 Y163.47 E32.80182
G1 X113.483 Y162.875 E32.84188
G1 X112.999 Y162.561 E32.86106
G1 X110.724 Y161.117 E32.95069
G1 X108.562 Y159.828 E33.03441
G1 X106.326 Y158.579 E33.11959
G1 X104.082 Y157.409 E33.20376
G1 X101.799 Y156.299 E33.28819
