;FLAVOR:Marlin
;TIME:11491
;Filament used: 6.77068m
;Layer height: 0.2
;MINX:72
;MINY:48.368
;MINZ:0.2
;MAXX:191.457
;MAXY:150.797
;MAXZ:22.2
;Generated with Cura_SteamEngine 4.4.1
M140 S60
M105
M190 S60
M104 S200
M105
M109 S200
M82 ;absolute extrusion mode
M201 X500.00 Y500.00 Z100.00 E5000.00 ;Setup machine max acceleration
M203 X500.00 Y500.00 Z10.00 E50.00 ;Setup machine max feedrate
M204 P500.00 R1000.00 T500.00 ;Setup Print/Retract/Travel acceleration
M205 X8.00 Y8.00 Z0.40 E5.00 ;Setup Jerk
M220 S100 ;Reset Feedrate
M221 S100 ;Reset Flowrate

G28 ;Home

G92 E0 ;Reset Extruder
G1 Z2.0 F3000 ;Move Z Axis up
G1 X10.1 Y20 Z0.28 F5000.0 ;Move to start position
G1 X10.1 Y200.0 Z0.28 F1500.0 E15 ;Draw the first line
G1 X10.4 Y200.0 Z0.28 F5000.0 ;Move to side a little
G1 X10.4 Y20 Z0.28 F1500.0 E30 ;Draw the second line
G92 E0 ;Reset Extruder
G1 Z2.0 F3000 ;Move Z Axis up

G92 E0
G92 E0
G1 F1500 E-6.5
;LAYER_COUNT:111
;LAYER:0
M107
G0 F6000 X81.804 Y53.351 Z0.2
;TYPE:SKIRT
G1 F1500 E0
G1 F1200 X82.352 Y52.59 E0.03119
G1 X82.962 Y51.878 E0.06237
G1 X83.631 Y51.221 E0.09356
G1 X84.354 Y50.623 E0.12477
G1 X85.125 Y50.089 E0.15596
G1 X85.939 Y49.623 E0.18716
G1 X86.789 Y49.227 E0.21835
G1 X87.67 Y48.906 E0.24953
G1 X88.575 Y48.66 E0.28073
G1 X89.498 Y48.493 E0.31192
G1 X90.271 Y48.414 E0.33777
G1 X90.603 Y48.392 E0.34883
G1 X91.33 Y48.368 E0.37303
G1 X128.293 Y48.368 E1.60242
G1 X128.451 Y48.369 E1.60768
G1 X129.149 Y48.379 E1.63089
G1 X130.085 Y48.433 E1.66208
G1 X131.013 Y48.565 E1.69325
G1 X132.18 Y48.85 E1.73321
G1 X132.969 Y49.089 E1.76063
G1 X135.408 Y49.798 E1.84511
G1 X137.859 Y50.437 E1.92935
G1 X140.295 Y50.998 E2.0125
G1 X142.809 Y51.504 E2.09779
G1 X145.252 Y51.921 E2.18022
G1 X147.761 Y52.279 E2.26451
G1 X150.251 Y52.562 E2.34786
G1 X152.758 Y52.776 E2.43155
G1 X155.274 Y52.918 E2.51537
G1 X157.791 Y52.991 E2.59912
G1 X159.138 Y53 E2.64392
G1 X179.75 Y53 E3.32948
G1 X179.908 Y53.001 E3.33473
G1 X180.606 Y53.011 E3.35795
G1 X181.542 Y53.065 E3.38913
G1 X182.47 Y53.197 E3.42031
G1 X183.384 Y53.409 E3.45152
G1 X184.276 Y53.698 E3.4827
G1 X185.141 Y54.061 E3.5139
G1 X185.971 Y54.497 E3.54509
G1 X186.762 Y55.002 E3.5763
G1 X187.506 Y55.573 E3.60749
G1 X188.199 Y56.205 E3.63869
G1 X188.836 Y56.893 E3.66987
G1 X189.411 Y57.634 E3.70107
G1 X189.922 Y58.42 E3.73225
G1 X190.364 Y59.248 E3.76347
G1 X190.733 Y60.11 E3.79466
G1 X191.028 Y61 E3.82584
G1 X191.246 Y61.912 E3.85703
G1 X191.386 Y62.84 E3.88824
G1 X191.444 Y63.701 E3.91695
G1 X191.453 Y64.021 E3.92759
G1 X191.457 Y64.33 E3.93787
G1 X191.457 Y95.264 E4.96674
G1 X191.456 Y95.415 E4.97176
G1 X191.446 Y96.142 E4.99594
G1 X191.393 Y97.079 E5.02716
G1 X191.261 Y98.007 E5.05834
G1 X191.05 Y98.921 E5.08953
G1 X190.761 Y99.813 E5.12072
G1 X190.398 Y100.678 E5.15192
G1 X189.963 Y101.509 E5.18312
G1 X189.458 Y102.299 E5.2143
G1 X188.888 Y103.044 E5.2455
G1 X188.257 Y103.738 E5.2767
G1 X187.568 Y104.375 E5.30791
G1 X186.828 Y104.951 E5.3391
G1 X186.042 Y105.462 E5.37028
G1 X185.215 Y105.904 E5.40147
G1 X184.44 Y106.241 E5.42958
G1 X183.657 Y106.546 E5.45753
G1 X181.299 Y107.496 E5.54208
G1 X178.988 Y108.505 E5.62595
G1 X176.708 Y109.576 E5.70973
G1 X174.473 Y110.706 E5.79303
G1 X172.236 Y111.916 E5.87762
G1 X170.086 Y113.161 E5.96025
G1 X167.944 Y114.482 E6.04396
G1 X165.819 Y115.876 E6.12848
G1 X163.766 Y117.31 E6.21177
G1 X161.726 Y118.822 E6.29623
G1 X159.755 Y120.369 E6.37957
G1 X157.824 Y121.977 E6.46314
G1 X155.943 Y123.634 E6.54652
G1 X154.093 Y125.36 E6.63067
G1 X152.312 Y127.119 E6.71393
G1 X150.562 Y128.947 E6.7981
G1 X148.873 Y130.815 E6.88186
G1 X147.229 Y132.738 E6.96601
G1 X145.659 Y134.687 E7.04925
G1 X144.141 Y136.685 E7.1327
G1 X142.67 Y138.734 E7.2166
G1 X141.256 Y140.829 E7.30066
G1 X139.92 Y142.934 E7.38359
G1 X138.446 Y145.412 E7.47948
G1 X137.932 Y146.197 E7.51069
G1 X137.354 Y146.935 E7.54187
G1 X136.715 Y147.621 E7.57305
G1 X136.02 Y148.251 E7.60425
G1 X135.273 Y148.818 E7.63544
G1 X134.481 Y149.321 E7.66665
G1 X133.649 Y149.754 E7.69785
G1 X132.783 Y150.114 E7.72904
G1 X131.89 Y150.399 E7.76022
G1 X130.975 Y150.608 E7.79143
G1 X130.047 Y150.737 E7.82259
G1 X129.299 Y150.784 E7.84752
G1 X128.977 Y150.793 E7.85824
G1 X128.67 Y150.797 E7.86845
G1 X91.707 Y150.797 E9.09784
G1 X91.55 Y150.796 E9.10306
G1 X90.849 Y150.786 E9.12638
G1 X89.913 Y150.733 E9.15756
G1 X88.984 Y150.6 E9.18878
G1 X88.071 Y150.388 E9.21995
G1 X87.178 Y150.1 E9.25116
G1 X86.314 Y149.736 E9.28234
G1 X85.483 Y149.3 E9.31355
G1 X84.693 Y148.795 E9.34474
G1 X83.949 Y148.225 E9.37591
G1 X83.256 Y147.593 E9.40711
G1 X82.619 Y146.904 E9.43832
G1 X82.043 Y146.164 E9.46951
G1 X81.532 Y145.377 E9.50072
G1 X81.091 Y144.55 E9.53189
G1 X80.856 Y144.026 E9.55099
G1 X80.608 Y143.431 E9.57243
G1 X79.555 Y141.016 E9.66006
G1 X78.501 Y138.773 E9.74248
G1 X77.344 Y136.478 E9.82797
G1 X76.168 Y134.304 E9.91018
G1 X74.887 Y132.087 E9.99534
G1 X73.638 Y130.053 E10.07473
G1 X73.182 Y129.233 E10.10593
G1 X72.797 Y128.378 E10.13712
G1 X72.487 Y127.493 E10.16831
G1 X72.253 Y126.585 E10.1995
G1 X72.097 Y125.66 E10.2307
G1 X72.019 Y124.697 E10.26283
G1 X72.007 Y124.367 E10.27381
G1 X72 Y123.967 E10.28712
G1 X72 Y113.004 E10.65175
G1 X72.001 Y112.846 E10.65701
G1 X72.011 Y112.149 E10.68019
G1 X72.096 Y110.935 E10.72067
G1 X72.161 Y110.418 E10.738
G1 X72.185 Y110.236 E10.7441
G1 X72.408 Y108.675 E10.79655
G1 X72.692 Y106.183 E10.87997
G1 X72.907 Y103.677 E10.96363
G1 X73.052 Y101.144 E11.04801
G1 X73.123 Y98.664 E11.13053
G1 X73.125 Y96.14 E11.21448
G1 X73.054 Y93.61 E11.29866
G1 X72.913 Y91.09 E11.38261
G1 X72.702 Y88.584 E11.46625
G1 X72.415 Y86.055 E11.55091
G1 X72.222 Y84.622 E11.599
G1 X72.121 Y83.92 E11.62259
G1 X72.013 Y82.667 E11.66442
G1 X72.004 Y82.348 E11.67503
G1 X72 Y82.038 E11.68534
G1 X72 Y71.075 E12.04998
G1 X72.001 Y70.917 E12.05523
G1 X72.011 Y70.219 E12.07845
G1 X72.065 Y69.283 E12.10963
G1 X72.197 Y68.355 E12.14081
G1 X72.409 Y67.441 E12.17201
G1 X72.698 Y66.549 E12.2032
G1 X73.061 Y65.684 E12.2344
G1 X73.497 Y64.854 E12.26558
G1 X74.002 Y64.063 E12.2968
G1 X74.476 Y63.436 E12.32294
G1 X74.707 Y63.152 E12.33512
G1 X76.368 Y61.094 E12.42308
G1 X77.877 Y59.11 E12.50598
G1 X79.363 Y57.038 E12.59079
G1 X80.755 Y54.977 E12.67351
G1 X81.269 Y54.168 E12.70539
G1 X81.36 Y54.027 E12.71097
G1 X81.804 Y53.351 E12.73787
G0 F6000 X82.138 Y53.571
G1 F1200 X82.677 Y52.824 E12.76851
G1 X83.278 Y52.127 E12.79912
G1 X83.937 Y51.484 E12.82974
G1 X84.65 Y50.901 E12.86038
G1 X85.41 Y50.382 E12.89098
G1 X86.213 Y49.932 E12.9216
G1 X87.052 Y49.552 E12.95223
G1 X87.92 Y49.247 E12.98283
G1 X88.812 Y49.018 E13.01346
G1 X89.72 Y48.867 E13.04408
G1 X90.297 Y48.813 E13.06335
G1 X90.629 Y48.791 E13.07442
G1 X91.33 Y48.768 E13.09775
G1 X128.293 Y48.768 E14.32714
G1 X128.445 Y48.769 E14.3322
G1 X129.143 Y48.779 E14.35542
G1 X130.062 Y48.832 E14.38603
G1 X130.973 Y48.965 E14.41666
G1 X132.064 Y49.233 E14.45402
G1 X132.818 Y49.461 E14.48022
G1 X135.31 Y50.186 E14.56654
G1 X137.773 Y50.828 E14.6512
G1 X140.232 Y51.394 E14.73512
G1 X142.701 Y51.891 E14.81889
G1 X145.199 Y52.318 E14.90318
G1 X147.695 Y52.674 E14.98704
G1 X150.204 Y52.959 E15.07102
G1 X152.736 Y53.175 E15.15554
G1 X155.242 Y53.317 E15.23903
G1 X157.822 Y53.391 E15.32487
G1 X159.135 Y53.4 E15.36854
G1 X179.75 Y53.4 E16.0542
G1 X179.902 Y53.401 E16.05926
G1 X180.6 Y53.411 E16.08248
G1 X181.519 Y53.464 E16.11309
G1 X182.43 Y53.597 E16.14371
G1 X183.326 Y53.808 E16.17433
G1 X184.2 Y54.096 E16.20494
G1 X185.047 Y54.459 E16.23559
G1 X185.858 Y54.894 E16.2662
G1 X186.628 Y55.398 E16.2968
G1 X187.352 Y55.967 E16.32743
G1 X188.024 Y56.597 E16.35807
G1 X188.639 Y57.282 E16.38869
G1 X189.192 Y58.018 E16.41931
G1 X189.679 Y58.799 E16.44992
G1 X190.096 Y59.62 E16.48055
G1 X190.441 Y60.474 E16.51118
G1 X190.71 Y61.354 E16.54179
G1 X190.902 Y62.255 E16.57243
G1 X191.015 Y63.168 E16.60302
G1 X191.044 Y63.712 E16.62114
G1 X191.053 Y64.032 E16.63179
G1 X191.057 Y64.33 E16.6417
G1 X191.057 Y95.264 E17.67057
G1 X191.056 Y95.41 E17.67543
G1 X191.046 Y96.137 E17.69961
G1 X190.993 Y97.056 E17.73023
G1 X190.861 Y97.967 E17.76084
G1 X190.65 Y98.863 E17.79146
G1 X190.363 Y99.738 E17.82209
G1 X190 Y100.584 E17.85271
G1 X189.566 Y101.396 E17.88333
G1 X189.062 Y102.167 E17.91397
G1 X188.494 Y102.891 E17.94457
G1 X187.865 Y103.563 E17.97519
G1 X187.18 Y104.178 E18.00581
G1 X186.444 Y104.731 E18.03642
G1 X185.663 Y105.219 E18.06706
G1 X184.843 Y105.637 E18.09767
G1 X184.294 Y105.868 E18.11748
G1 X183.58 Y106.146 E18.14296
G1 X181.156 Y107.122 E18.22987
G1 X178.807 Y108.148 E18.31513
G1 X176.536 Y109.215 E18.39859
G1 X174.281 Y110.355 E18.48263
G1 X172.052 Y111.561 E18.56692
G1 X169.897 Y112.808 E18.64973
G1 X167.695 Y114.166 E18.73578
G1 X165.6 Y115.541 E18.81912
G1 X163.521 Y116.993 E18.90347
G1 X161.508 Y118.484 E18.98678
G1 X159.498 Y120.064 E19.07182
G1 X157.567 Y121.671 E19.15538
G1 X155.652 Y123.358 E19.24026
G1 X153.821 Y125.065 E19.32352
G1 X152.043 Y126.823 E19.40668
G1 X150.243 Y128.703 E19.49325
G1 X148.588 Y130.532 E19.57529
G1 X146.912 Y132.494 E19.66111
G1 X145.362 Y134.418 E19.74329
G1 X143.819 Y136.447 E19.82807
G1 X142.347 Y138.499 E19.91207
G1 X140.92 Y140.612 E19.99687
G1 X139.567 Y142.745 E20.08088
G1 X138.102 Y145.207 E20.17617
G1 X137.597 Y145.977 E20.2068
G1 X137.028 Y146.701 E20.23742
G1 X136.398 Y147.372 E20.26804
G1 X135.712 Y147.986 E20.29866
G1 X134.975 Y148.538 E20.32928
G1 X134.193 Y149.024 E20.35991
G1 X133.372 Y149.441 E20.39053
G1 X132.518 Y149.784 E20.42114
G1 X131.637 Y150.053 E20.45178
G1 X130.737 Y150.243 E20.48237
G1 X129.823 Y150.355 E20.513
G1 X129.288 Y150.384 E20.53082
G1 X128.966 Y150.393 E20.54154
G1 X128.67 Y150.397 E20.55138
G1 X91.707 Y150.397 E21.78078
G1 X91.556 Y150.396 E21.7858
G1 X90.855 Y150.386 E21.80912
G1 X89.936 Y150.333 E21.83973
G1 X89.025 Y150.2 E21.87035
G1 X88.129 Y149.989 E21.90097
G1 X87.254 Y149.701 E21.93161
G1 X86.408 Y149.338 E21.96223
G1 X85.597 Y148.903 E21.99284
G1 X84.826 Y148.399 E22.02347
G1 X84.102 Y147.83 E22.0541
G1 X83.43 Y147.201 E22.08471
G1 X82.815 Y146.516 E22.11533
G1 X82.262 Y145.78 E22.14595
G1 X81.775 Y144.998 E22.17659
G1 X81.225 Y143.872 E22.21827
G1 X80.962 Y143.243 E22.24095
G1 X79.926 Y140.865 E22.32722
G1 X78.842 Y138.558 E22.412
G1 X77.718 Y136.328 E22.49506
G1 X76.509 Y134.093 E22.57957
G1 X75.232 Y131.883 E22.66447
G1 X73.979 Y129.843 E22.7441
G1 X73.532 Y129.039 E22.77469
G1 X73.156 Y128.198 E22.80533
G1 X72.855 Y127.328 E22.83595
G1 X72.63 Y126.435 E22.86658
G1 X72.484 Y125.526 E22.8972
G1 X72.419 Y124.682 E22.92536
G1 X72.407 Y124.352 E22.93634
G1 X72.4 Y123.967 E22.94915
G1 X72.4 Y113.004 E23.31378
G1 X72.401 Y112.852 E23.31883
G1 X72.411 Y112.155 E23.34202
G1 X72.493 Y110.985 E23.38103
G1 X72.558 Y110.468 E23.39836
G1 X72.581 Y110.293 E23.40423
G1 X72.802 Y108.745 E23.45624
G1 X73.094 Y106.191 E23.54174
G1 X73.304 Y103.735 E23.62372
G1 X73.45 Y101.176 E23.70897
G1 X73.523 Y98.641 E23.79332
G1 X73.525 Y96.129 E23.87687
G1 X73.454 Y93.575 E23.96185
G1 X73.313 Y91.07 E24.0453
G1 X73.103 Y88.576 E24.12854
G1 X72.811 Y86.001 E24.21474
G1 X72.618 Y84.568 E24.26283
G1 X72.517 Y83.863 E24.28652
G1 X72.413 Y82.656 E24.32681
G1 X72.404 Y82.337 E24.33743
G1 X72.4 Y82.038 E24.34737
G1 X72.4 Y71.075 E24.712
G1 X72.401 Y70.923 E24.71706
G1 X72.411 Y70.225 E24.74028
G1 X72.464 Y69.306 E24.77089
G1 X72.597 Y68.395 E24.80151
G1 X72.808 Y67.499 E24.83213
G1 X73.096 Y66.625 E24.86274
G1 X73.459 Y65.778 E24.89339
G1 X73.894 Y64.967 E24.924
G1 X74.398 Y64.197 E24.95461
G1 X74.787 Y63.688 E24.97591
G1 X75.018 Y63.404 E24.98809
G1 X76.673 Y61.354 E25.07572
G1 X78.2 Y59.346 E25.15962
G1 X79.675 Y57.29 E25.24378
G1 X81.091 Y55.194 E25.32791
G1 X81.606 Y54.383 E25.35987
G1 X81.694 Y54.247 E25.36525
G1 X82.138 Y53.571 E25.39215
G0 F6000 X82.472 Y53.79
G1 F1200 X83.001 Y53.058 E25.42219
G1 X83.593 Y52.376 E25.45223
G1 X84.242 Y51.748 E25.48227
G1 X84.944 Y51.181 E25.51228
G1 X85.694 Y50.677 E25.54233
G1 X86.486 Y50.242 E25.57239
G1 X87.313 Y49.879 E25.60243
G1 X88.168 Y49.59 E25.63245
G1 X89.046 Y49.378 E25.66249
G1 X90.324 Y49.212 E25.70535
G1 X90.656 Y49.19 E25.71642
G1 X91.33 Y49.168 E25.73885
G1 X128.293 Y49.168 E26.96824
G1 X128.439 Y49.169 E26.9731
G1 X129.137 Y49.179 E26.99631
G1 X130.039 Y49.232 E27.02637
G1 X130.932 Y49.364 E27.05639
G1 X131.948 Y49.616 E27.09121
G1 X132.688 Y49.84 E27.11692
G1 X135.202 Y50.572 E27.20401
G1 X137.654 Y51.21 E27.28828
G1 X140.169 Y51.789 E27.37412
G1 X142.653 Y52.29 E27.4584
G1 X145.112 Y52.71 E27.54137
G1 X147.665 Y53.073 E27.62714
G1 X150.161 Y53.358 E27.71069
G1 X152.68 Y53.572 E27.79478
G1 X155.242 Y53.717 E27.88013
G1 X157.809 Y53.791 E27.96554
G1 X159.132 Y53.8 E28.00955
G1 X179.75 Y53.8 E28.6953
G1 X179.896 Y53.801 E28.70016
G1 X180.594 Y53.811 E28.72338
G1 X181.496 Y53.864 E28.75343
G1 X182.389 Y53.996 E28.78345
G1 X183.267 Y54.207 E28.81349
G1 X184.123 Y54.495 E28.84353
G1 X184.95 Y54.857 E28.87355
G1 X185.742 Y55.292 E28.90361
G1 X186.493 Y55.794 E28.93365
G1 X187.196 Y56.361 E28.96369
G1 X187.846 Y56.988 E28.99373
G1 X188.438 Y57.67 E29.02377
G1 X188.968 Y58.401 E29.0538
G1 X189.43 Y59.177 E29.08383
G1 X189.823 Y59.99 E29.11387
G1 X190.141 Y60.835 E29.1439
G1 X190.384 Y61.705 E29.17394
G1 X190.549 Y62.593 E29.20398
G1 X190.644 Y63.723 E29.2417
G1 X190.653 Y64.043 E29.25235
G1 X190.657 Y64.33 E29.26189
G1 X190.657 Y95.264 E30.29076
G1 X190.656 Y95.404 E30.29542
G1 X190.646 Y96.131 E30.3196
G1 X190.594 Y97.033 E30.34965
G1 X190.462 Y97.926 E30.37968
G1 X190.251 Y98.805 E30.40974
G1 X189.964 Y99.661 E30.43977
G1 X189.602 Y100.488 E30.4698
G1 X189.168 Y101.28 E30.49983
G1 X188.666 Y102.031 E30.52988
G1 X188.1 Y102.734 E30.5599
G1 X187.473 Y103.385 E30.58996
G1 X186.792 Y103.977 E30.61997
G1 X186.061 Y104.507 E30.65
G1 X185.285 Y104.97 E30.68006
G1 X184.149 Y105.495 E30.72168
G1 X183.434 Y105.773 E30.7472
G1 X180.995 Y106.756 E30.83466
G1 X178.656 Y107.777 E30.91954
G1 X176.351 Y108.86 E31.00425
G1 X174.089 Y110.004 E31.08856
G1 X171.867 Y111.206 E31.17258
G1 X169.682 Y112.47 E31.25654
G1 X167.496 Y113.818 E31.34196
G1 X165.373 Y115.211 E31.42641
G1 X163.3 Y116.659 E31.51051
G1 X161.246 Y118.181 E31.59554
G1 X159.258 Y119.743 E31.67963
G1 X157.313 Y121.361 E31.76378
G1 X155.398 Y123.049 E31.84868
G1 X153.533 Y124.788 E31.9335
G1 X151.738 Y126.563 E32.01746
G1 X149.974 Y128.404 E32.10226
G1 X148.271 Y130.288 E32.18673
G1 X146.613 Y132.229 E32.27163
G1 X145.035 Y134.187 E32.35527
G1 X143.498 Y136.208 E32.43972
G1 X142.006 Y138.288 E32.52486
G1 X140.594 Y140.379 E32.60878
G1 X139.228 Y142.532 E32.69359
G1 X137.758 Y145.003 E32.78922
G1 X137.263 Y145.758 E32.81924
G1 X136.702 Y146.466 E32.84929
G1 X136.081 Y147.122 E32.87933
G1 X135.405 Y147.72 E32.90935
G1 X134.678 Y148.256 E32.93939
G1 X133.907 Y148.726 E32.96943
G1 X133.097 Y149.126 E32.99947
G1 X132.255 Y149.452 E33.0295
G1 X131.387 Y149.703 E33.05956
G1 X130.501 Y149.876 E33.08958
G1 X129.277 Y149.984 E33.13045
G1 X128.955 Y149.993 E33.14116
G1 X128.67 Y149.997 E33.15064
G1 X91.707 Y149.997 E34.38004
G1 X91.562 Y149.996 E34.38486
G1 X90.861 Y149.986 E34.40818
G1 X89.959 Y149.933 E34.43823
G1 X89.066 Y149.801 E34.46825
G1 X88.187 Y149.59 E34.49832
G1 X87.331 Y149.302 E34.52836
G1 X86.504 Y148.94 E34.55839
G1 X85.712 Y148.506 E34.58842
G1 X84.962 Y148.003 E34.61846
G1 X84.259 Y147.436 E34.6485
G1 X83.609 Y146.81 E34.67851
G1 X83.016 Y146.128 E34.70857
G1 X82.487 Y145.396 E34.73861
G1 X82.024 Y144.621 E34.76864
G1 X81.594 Y143.718 E34.8019
G1 X81.34 Y143.11 E34.82382
G1 X80.283 Y140.685 E34.9118
G1 X79.204 Y138.387 E34.99624
G1 X78.069 Y136.137 E35.08006
G1 X76.856 Y133.893 E35.1649
G1 X75.579 Y131.685 E35.24974
G1 X74.32 Y129.634 E35.32978
G1 X73.882 Y128.844 E35.35982
G1 X73.515 Y128.019 E35.38986
G1 X73.223 Y127.164 E35.41991
G1 X73.008 Y126.287 E35.44994
G1 X72.871 Y125.395 E35.47995
G1 X72.819 Y124.668 E35.5042
G1 X72.807 Y124.338 E35.51518
G1 X72.8 Y123.967 E35.52752
G1 X72.8 Y113.004 E35.89215
G1 X72.801 Y112.858 E35.89701
G1 X72.811 Y112.161 E35.92019
G1 X72.89 Y111.035 E35.95774
G1 X72.955 Y110.518 E35.97507
G1 X72.977 Y110.349 E35.98074
G1 X73.202 Y108.775 E36.03362
